X:3149
T:Melevetten - Menuett efter Carl Gabriel Malmberg
M:3/4
L:1/8
O:Skåne
Q:120 
K:D
R:Menuett
N:(SvL Skåne nr. 168) Den här versionen är något slätare än den som står i SvL
D2 DE F/2E/2D | A2 AB c/2B/2A | d2 e/2f/2g f/2e/2c | dc c3 d | B2 Bg fg |
 A2 Af ef | G2 GE FG | Ad FA D2 | E/2F/2G/2E/2 DF A2 | A,C E2 D2 :|
f2 fe fg | fe e3 c | d2 dc de | dc c3 d | B2 Bg fg |
 A2 Af ef | G2 GE FG | Ad FA D2 | E/2F/2G/2E/2 DF A2 | A,C E2 D2 :|
(:musicend:)

(:music:)
